X:561
T: STORCH STORCH HEINI
N: E1856
O: Europa, Mitteleuropa, Deutschland; Frankreich, Elsass
R: Kinder - Lied, Tier - Lied
M: 2/4
L: 1/8
K: F
 | cdcd | c2A
A | cdcd | c2A
A | cdcd | c4 |
cdcd | cBA2

@@@ Tune index: 5245
